symbols/web/translate/materialsymbolsoutlined/translate_grad200_48px.svg

<svg xmlns="http://www.w3.org/2000/svg" height="48" width="48"><path d="m23.75 45.5 9.75-25.8h4.4l10 25.8h-4.7L41 38.7H30.7l-2.55 6.8Zm8.1-10.55h7.65L35.75 24.5h-.1ZM6.8 39.05l-2.95-3L14.8 25.1q-2-2.35-3.6-4.75T8.45 15.4h4.65q.9 1.75 2.025 3.35T17.6 22q2.4-2.55 4.025-5.25 1.625-2.7 2.775-5.65H.35V6.8H15.4V2.5h4.3v4.3h15.05v4.3H28.7q-1.15 3.75-3.125 7.3t-4.825 6.75L26 30.5l-1.6 4.35-6.85-6.55Z"/></svg>

<svg xmlns="http://www.w3.org/2000/svg" height="48" width="48"><path d="M23.75 45.5 33.5 19.7H37.9L47.9 45.5H43.2L41 38.7H30.7L28.15 45.5ZM31.85 34.95H39.5L35.75 24.5H35.65ZM6.8 39.05 3.85 36.05 14.8 25.1Q12.8 22.75 11.2 20.35Q9.6 17.95 8.45 15.4H13.1Q14 17.15 15.125 18.75Q16.25 20.35 17.6 22Q20 19.45 21.625 16.75Q23.25 14.05 24.4 11.1H0.35V6.8H15.4V2.5H19.7V6.8H34.75V11.1H28.7Q27.55 14.85 25.575 18.4Q23.6 21.95 20.75 25.15L26 30.5L24.4 34.85L17.55 28.3Z"/></svg>
